X:51
T:Maid at the Spinning Wheel
M:6/8
L:1/8
K:G Major
E|DGA B3|cBA B3|DGA BAG|F3 AFD|!
DGA B3|cBA B2c|ded cAF|AGG G2:|!
c|BAG AFD|D3AFD|D3 AFD|EFG ABc|!
BAG AFD|D3 AFD|ded cAF|BGG G2:|!
D|GBd gba|gdB ecA|dBG cAG|F3 AFD|!
GBd gba|gdB ecA|fed cAF|AGG G2:|!
c|BAG Afd|Bfd Afd|Bfd AFD|EFG ABc|!
BAG AFD|D3 AFD|ded cAF|AGG G2:|!
